X: 2
T: The Triumph
O: Trad., arr. G. Funhoff, Jan 2010
N: Arranged for the dance Laird Jim's 60th
M: C|
L: 1/8
K: A
af | "A"eccA "E7"dBBG | "A"A2a2 "D"f2a2 | "A"eccA "E7"dBBG | "A"A2c2 A2 ||
z2 | "E"B2e2 "A"c2e2 | "E"B2e2 "A"c2e2 | "E7"B2Bd "A"c2ce | "E7"[c2A2][B2G2] "A"A2 ||
z2 | "E"Be^de "A"cede | "E"Be^de "A"cede | "E7"B2Bd "A"c2ce | "E7"[c2E2][B2D2] "A"[A2C2] ||
|: \
z2 | "A"c2cd e2c2 | "E7"B2Bc d2B2 | "A"c2cd eagf | "E7"edcB "A"A2 ||
AB | "A"c2cd fedc | "E7"B2Bc edcB | "A"c2cd eagf | "E7"edcB "A"A2 :|
